X: 69
T:Mayor Harrison's Fedora
T:Major Harrison's Fedora
M:C|
L:1/8
R:Reel
K:EDor
F[|:GBEG B2AF|GFGA BdAG|FADF ADFA|dcdB AGFA|!
GBEG B2AF|GFGA BABc|dcdB AGFA|1GEED E3F:|2GEED E3A|!
|:Beed ~e3f|gefd edBA|^GABc d2AB|dfaf gfed|!
Beed ~e3f|gefd edBc|dcdB AGFA|1GEED E3A:|2GEED E3F|!
|:G2GF GABc|dBAG FADA|Beed efga|fedf edBc|!
dB~B2 AF~F2|G2EF GABc|dcdB AGFA|GEED E3F:|]!
